synths/sMSFT.svg

<svg width="42" height="42" viewBox="0 0 42 42" fill="none" xmlns="http://www.w3.org/2000/svg">
<g clip-path="url(#clip0_7277_57841)">
<mask id="mask0_7277_57841" style="mask-type:alpha" maskUnits="userSpaceOnUse" x="0" y="0" width="42" height="42">
<circle cx="21" cy="21" r="21" fill="url(#paint0_linear_7277_57841)"/>
</mask>
<g mask="url(#mask0_7277_57841)">
<circle cx="21" cy="21" r="21" fill="#34EDB3"/>
<circle cx="21" cy="21" r="18.2" fill="white"/>
</g>
<circle cx="21" cy="21" r="16.1" fill="#06061B"/>
<circle cx="21" cy="21" r="16.1" fill="#06061B"/>
<circle cx="21" cy="21" r="16.1" fill="white"/>
<path d="M11.375 11.375H20.5224V20.5224H11.375V11.375Z" fill="#F25022"/>
<path d="M21.4775 11.375H30.6249V20.5224H21.4775V11.375Z" fill="#7FBA00"/>
<path d="M11.375 21.4775H20.5224V30.625H11.375V21.4775Z" fill="#00A4EF"/>
<path d="M21.4775 21.4775H30.6249V30.625H21.4775V21.4775Z" fill="#FFB900"/>
</g>
<defs>
<linearGradient id="paint0_linear_7277_57841" x1="21" y1="0" x2="21" y2="61.4091" gradientUnits="userSpaceOnUse">
<stop stop-color="#08021E"/>
<stop offset="1" stop-color="#1F0777"/>
</linearGradient>
<clipPath id="clip0_7277_57841">
<rect width="42" height="42" fill="white"/>
</clipPath>
</defs>
</svg>

<svg xmlns="http://www.w3.org/2000/svg" width="42" height="42" fill="none"><g clip-path="url(#a)"><mask id="c" width="42" height="42" x="0" y="0" maskUnits="userSpaceOnUse" style="mask-type:alpha"><circle cx="21" cy="21" r="21" fill="url(#b)"/></mask><g mask="url(#c)"><circle cx="21" cy="21" r="21" fill="#34EDB3"/><circle cx="21" cy="21" r="18.2" fill="#fff"/></g><circle cx="21" cy="21" r="16.1" fill="#06061B"/><circle cx="21" cy="21" r="16.1" fill="#06061B"/><circle cx="21" cy="21" r="16.1" fill="#fff"/><path fill="#F25022" d="M11.375 11.375h9.147v9.147h-9.147v-9.147Z"/><path fill="#7FBA00" d="M21.477 11.375h9.148v9.147h-9.148v-9.147Z"/><path fill="#00A4EF" d="M11.375 21.477h9.147v9.148h-9.147v-9.148Z"/><path fill="#FFB900" d="M21.477 21.477h9.148v9.148h-9.148v-9.148Z"/></g><defs><linearGradient id="b" x1="21" x2="21" y1="0" y2="61.409" gradientUnits="userSpaceOnUse"><stop stop-color="#08021E"/><stop offset="1" stop-color="#1F0777"/></linearGradient><clipPath id="a"><path fill="#fff" d="M0 0h42v42H0z"/></clipPath></defs></svg>
